icons/24x24_key_outline.svg

<svg xmlns="http://www.w3.org/2000/svg" width="24" height="24" viewBox="0 0 24 24">
  <path d="M20,15 L20,13 L21,13 C21.5522847,13 22,12.5522847 22,12 C22,11.4477153 21.5522847,11 21,11 L11.9514124,11 L11.7157487,10.3332461 C11.0154711,8.35197855 9.13614903,7 7,7 C4.23857625,7 2,9.23857625 2,12 C2,14.7614237 4.23857625,17 7,17 C9.13614903,17 11.0154711,15.6480214 11.7157487,13.6667539 L11.9514124,13 L18,13 L18,15 L20,15 Z M22,17 L16,17 L16,15 L13.326396,15 C12.1852426,17.4064194 9.74415335,19 7,19 C3.13400675,19 0,15.8659932 0,12 C0,8.13400675 3.13400675,5 7,5 C9.74415335,5 12.1852426,6.59358057 13.326396,9 L21,9 C22.6568542,9 24,10.3431458 24,12 C24,13.3062188 23.1651924,14.4174579 22,14.8292943 L22,17 Z M7,14 C8.1045695,14 9,13.1045695 9,12 C9,10.8954305 8.1045695,10 7,10 C5.8954305,10 5,10.8954305 5,12 C5,13.1045695 5.8954305,14 7,14 Z"/>
</svg>

<svg width="24" height="24" fill="none" xmlns="http://www.w3.org/2000/svg"><path d="M20 15v-2h1a1 1 0 1 0 0-2h-9.049l-.235-.667A5.002 5.002 0 0 0 2 12a5 5 0 0 0 9.716 1.667L11.95 13H18v2h2Zm2 2h-6v-2h-2.674A7.002 7.002 0 0 1 0 12a7 7 0 0 1 13.326-3H21a3 3 0 0 1 1 5.83V17ZM7 14a2 2 0 1 0 0-4 2 2 0 0 0 0 4Z" fill="#000"/></svg>
